icons/mobile/24/svg/download-24.svg

<svg width="24" height="24" viewBox="0 0 24 24" fill="none" xmlns="http://www.w3.org/2000/svg">
<path d="M20.125 17C20.6082 17 21 17.3918 21 17.875V18.4619C21 19.9989 19.8809 21.3358 18.3359 21.5547C16.4697 21.8188 14.3422 22 12 22C10.1778 22 8.04975 21.89 5.69531 21.5586C4.15386 21.342 3 20.0167 3 18.459V17.875C3 17.3918 3.39175 17 3.875 17C4.35825 17 4.75 17.3918 4.75 17.875V18.459C4.75 19.1432 5.26009 19.7297 5.93848 19.8252C8.20193 20.1438 10.2483 20.25 12 20.25C14.2518 20.25 16.2971 20.0752 18.0908 19.8213C18.7494 19.7278 19.25 19.1507 19.25 18.4619V17.875C19.25 17.3918 19.6418 17 20.125 17Z" fill="black"/>
<path d="M12 3C12.4832 3 12.875 3.39175 12.875 3.875V14.5283L16.0049 11.3994C16.3469 11.0574 16.9012 11.0574 17.2432 11.3994C17.5838 11.7414 17.5838 12.2948 17.2432 12.6367L13.502 16.3779C13.101 16.7789 12.566 16.999 11.999 16.999C11.4324 16.9988 10.8978 16.7787 10.4971 16.3779L6.75586 12.6367C6.41516 12.2948 6.4152 11.7414 6.75586 11.3994C7.09786 11.0574 7.65214 11.0574 7.99414 11.3994L11.125 14.5293V3.875C11.125 3.39175 11.5168 3 12 3Z" fill="black"/>
</svg>

<!-- This Source Code Form is subject to the terms of the Mozilla Public
   - License, v. 2.0. If a copy of the MPL was not distributed with this
   - file, You can obtain one at http://mozilla.org/MPL/2.0/. -->
<svg xmlns="http://www.w3.org/2000/svg" width="24" height="24" fill="none" viewBox="0 0 24 24">
    <path fill="#000" d="M20.125 17c.483 0 .875.392.875.875v.587c0 1.537-1.12 2.874-2.664 3.093a45.2 45.2 0 0 1-12.64.004A3.136 3.136 0 0 1 3 18.459v-.584a.875.875 0 0 1 1.75 0v.584c0 .684.51 1.27 1.188 1.366a43.5 43.5 0 0 0 12.153-.004 1.365 1.365 0 0 0 1.159-1.36v-.586c0-.483.392-.875.875-.875" />
    <path fill="#000" d="M12 3c.483 0 .875.392.875.875v10.653l3.13-3.129a.876.876 0 0 1 1.238 1.238l-3.741 3.74a2.1 2.1 0 0 1-1.503.622 2.1 2.1 0 0 1-1.502-.621l-3.741-3.741A.875.875 0 0 1 7.994 11.4l3.131 3.13V3.874c0-.483.392-.875.875-.875" />
</svg>
